resources/icons/hicolor/scalable/actions/cm-wireless-acquiring-symbolic.svg

<?xml version="1.0" encoding="UTF-8"?>
<svg height="16px" viewBox="0 0 16 16" width="16px" xmlns="http://www.w3.org/2000/svg">
    <path d="m 8 1.992188 c -2.617188 0 -5.238281 0.933593 -7.195312 2.808593 l -0.496094 0.480469 c -0.3984378 0.378906 -0.410156 1.011719 -0.03125 1.410156 c 0.003906 0.007813 0.011718 0.011719 0.019531 0.015625 c 0.480469 -1.011719 1.503906 -1.707031 2.703125 -1.707031 h 0.9375 c 2.480469 -1.292969 5.644531 -1.292969 8.125 0 h 0.9375 c 1.199219 0 2.222656 0.695312 2.707031 1.707031 c 0.003907 -0.007812 0.011719 -0.011719 0.015625 -0.015625 c 0.378906 -0.398437 0.367188 -1.03125 -0.03125 -1.410156 l -0.496094 -0.480469 c -1.957031 -1.875 -4.578124 -2.808593 -7.195312 -2.808593 z m -1.730469 9.007812 c -0.441406 0.765625 -0.339843 1.757812 0.316407 2.414062 c 0.78125 0.78125 2.046874 0.78125 2.828124 0 c 0.65625 -0.65625 0.757813 -1.648437 0.316407 -2.414062 z m 0 0" fill="#2e3434" fill-opacity="0.34902"/>
    <path d="m 3 6 c -1.105469 0 -2 0.894531 -2 2 s 0.894531 2 2 2 s 2 -0.894531 2 -2 s -0.894531 -2 -2 -2 z m 5 0 c -1.105469 0 -2 0.894531 -2 2 s 0.894531 2 2 2 s 2 -0.894531 2 -2 s -0.894531 -2 -2 -2 z m 5 0 c -1.105469 0 -2 0.894531 -2 2 s 0.894531 2 2 2 s 2 -0.894531 2 -2 s -0.894531 -2 -2 -2 z m 0 0" fill="#2e3436"/>
</svg>

<svg width='16' height='16'
     xmlns:gpa='https://www.gtk.org/grappa'
     gpa:version='1'>
  <path d='M8.00 1.99C5.38 1.99 2.76 2.93 0.80 4.80L0.31 5.28C-0.09 5.66 -0.10 6.29 0.28 6.69C0.28 6.70 0.29 6.70 0.30 6.71C0.78 5.70 1.80 5.00 3.00 5.00L3.94 5.00C6.42 3.71 9.58 3.71 12.06 5.00L13.00 5.00C14.20 5.00 15.22 5.70 15.71 6.71C15.71 6.70 15.72 6.70 15.72 6.69C16.10 6.29 16.09 5.66 15.69 5.28L15.20 4.80C13.24 2.93 10.62 1.99 8.00 1.99ZM6.27 11.00C5.83 11.77 5.93 12.76 6.59 13.41C7.37 14.20 8.63 14.20 9.41 13.41C10.07 12.76 10.17 11.77 9.73 11.00ZM6.27 11.00'
stroke='none'
fill='rgb(0,0,0)'
gpa:fill='foreground'/>
  <path d='M3.00 6.00C1.89 6.00 1.00 6.89 1.00 8.00C1.00 9.11 1.89 10.00 3.00 10.00C4.11 10.00 5.00 9.11 5.00 8.00C5.00 6.89 4.11 6.00 3.00 6.00ZM8.00 6.00C6.89 6.00 6.00 6.89 6.00 8.00C6.00 9.11 6.89 10.00 8.00 10.00C9.11 10.00 10.00 9.11 10.00 8.00C10.00 6.89 9.11 6.00 8.00 6.00ZM13.00 6.00C11.89 6.00 11.00 6.89 11.00 8.00C11.00 9.11 11.89 10.00 13.00 10.00C14.11 10.00 15.00 9.11 15.00 8.00C15.00 6.89 14.11 6.00 13.00 6.00ZM13.00 6.00'
stroke='none'
fill='rgb(0,0,0)'
gpa:fill='foreground'/>
</svg>
